images_elementary_svg/cmd/sc_insertcaptiondialog.svg

<svg viewBox="0 0 16 16" xmlns="http://www.w3.org/2000/svg" xmlns:xlink="http://www.w3.org/1999/xlink"><radialGradient id="a" cx="64.574997" cy="48.605" gradientTransform="matrix(0 .3853 -.4196 0 32.39 -16.793)" gradientUnits="userSpaceOnUse" r="31"><stop offset="0" stop-color="#cdf87e"/><stop offset=".262" stop-color="#a2e34f"/><stop offset=".661" stop-color="#68b723"/><stop offset="1" stop-color="#1d7e0d"/></radialGradient><linearGradient id="b" gradientTransform="matrix(.25378586 0 0 .30501865 19.128979 -.685477)" gradientUnits="userSpaceOnUse" x1="7.118644" x2="6.847457" y1="15.932206" y2=".271189"><stop offset="0" stop-opacity=".339506"/><stop offset="1" stop-opacity=".246914"/></linearGradient><linearGradient id="c" gradientTransform="matrix(.24324324 0 0 .35135133 2.162164 -.432428)" gradientUnits="userSpaceOnUse" x1="19.888882" x2="48.66666" y1="23.999989" y2="23.999989"><stop offset="0" stop-color="#fff"/><stop offset=".14285715" stop-color="#fff" stop-opacity=".235294"/><stop offset="1" stop-color="#fff" stop-opacity=".156863"/><stop offset="1" stop-color="#fff" stop-opacity=".392157"/></linearGradient><linearGradient id="d" gradientTransform="matrix(.28571361 0 0 .30419701 -25.704585 .164808)" gradientUnits="userSpaceOnUse" x1="110.96631" x2="142.46638" y1="12.607593" y2="12.607593"><stop offset="0" stop-color="#f4f4f4"/><stop offset="1" stop-color="#dbdbdb"/></linearGradient>



/&amp;amp;amp;gt;<path d="m16 13.5h-13.5v2h13.5" fill="#fcaf3e" stroke="#ce5c00" stroke-linejoin="round" stroke-miterlimit="0"/><g transform="matrix(0 1 -1 0 13 -4)"><path d="m5.5-2.5v13h10v-13z" fill="url(#d)"/><path d="m5.5-2.5v13h10v-13z" fill="none" stroke="url(#b)" stroke-linejoin="round"/><path d="m7 2h7v9h-7z" fill="none"/><path d="m6-2v12h9v-12zm1 1h7v10h-7z" fill="url(#c)"/></g><g transform="translate(-7.993 -7.993)"><path d="m10.5 10.5v-2.007h3v2.007h2.007v3h-2.007v2.007h-3v-2.007h-2.007v-3z" fill="url(#a)"/><path d="m10.5 10.5v-2.007h3v2.007h2.007v3h-2.007v2.007h-3v-2.007h-2.007v-3z" fill="none" opacity=".5" stroke="#0f5a00" stroke-linecap="round" stroke-linejoin="round"/><g fill="#fff"><path d="m11 9h2v1h-2z" opacity=".5"/><path d="m11 14h2v1h-2z" opacity=".2"/><path d="m9 11v1h2v-1zm4 0v1h2v-1z" opacity=".4"/></g></g></svg>

<?xml version="1.0" encoding="UTF-8" standalone="no"?>
<svg
   xmlns:dc="http://purl.org/dc/elements/1.1/"
   xmlns:cc="http://creativecommons.org/ns#"
   xmlns:rdf="http://www.w3.org/1999/02/22-rdf-syntax-ns#"
   xmlns:svg="http://www.w3.org/2000/svg"
   xmlns="http://www.w3.org/2000/svg"
   xmlns:sodipodi="http://sodipodi.sourceforge.net/DTD/sodipodi-0.dtd"
   xmlns:inkscape="http://www.inkscape.org/namespaces/inkscape"
   viewBox="0 0 16 16"
   version="1.1"
   id="svg29"
   sodipodi:docname="sc_insertcaptiondialog.svg"
   inkscape:version="0.92.4 (unknown)"
   inkscape:export-filename="/home/rizmut/Dokumen/Rizmut/Github/libreoffice-style-elementary/images_elementary/cmd/sc_insertcaptiondialog.png"
   inkscape:export-xdpi="96"
   inkscape:export-ydpi="96"><metadata
   id="metadata35">
  <rdf:RDF>
    <cc:Work
       rdf:about="">
      <dc:format>image/svg+xml</dc:format>
      <dc:type
         rdf:resource="http://purl.org/dc/dcmitype/StillImage" />
      <dc:title />
    </cc:Work>
  </rdf:RDF>
</metadata>
<defs
   id="defs33">
  <radialGradient
     id="a-3"
     cx="64.574997"
     cy="48.605"
     gradientTransform="matrix(0,0.3853,-0.4196,0,32.39,-16.793)"
     gradientUnits="userSpaceOnUse"
     r="31">
    <stop
       offset="0"
       stop-color="#cdf87e"
       id="stop2-6" />
    <stop
       offset=".262"
       stop-color="#a2e34f"
       id="stop4-7" />
    <stop
       offset=".661"
       stop-color="#68b723"
       id="stop6" />
    <stop
       offset="1"
       stop-color="#1d7e0d"
       id="stop8" />
  </radialGradient>
</defs>
<sodipodi:namedview
   pagecolor="#ffffff"
   bordercolor="#666666"
   borderopacity="1"
   objecttolerance="10"
   gridtolerance="10"
   guidetolerance="10"
   inkscape:pageopacity="0"
   inkscape:pageshadow="2"
   inkscape:window-width="1366"
   inkscape:window-height="714"
   id="namedview31"
   showgrid="true"
   inkscape:zoom="14.75"
   inkscape:cx="4.1490934"
   inkscape:cy="5.1367396"
   inkscape:window-x="0"
   inkscape:window-y="28"
   inkscape:window-maximized="1"
   inkscape:current-layer="svg29">
  <inkscape:grid
     type="xygrid"
     id="grid839" />
</sodipodi:namedview>
<linearGradient
   id="a"
   gradientTransform="matrix(0.25378586,0,0,0.30501865,19.128979,-0.685477)"
   gradientUnits="userSpaceOnUse"
   x1="7.118644"
   x2="6.847457"
   y1="15.932206"
   y2=".271189">
  <stop
     offset="0"
     stop-opacity=".339506"
     id="stop2" />
  <stop
     offset="1"
     stop-opacity=".246914"
     id="stop4" />
</linearGradient>
<linearGradient
   id="b"
   gradientTransform="matrix(0.24324324,0,0,0.35135133,2.162164,-0.432428)"
   gradientUnits="userSpaceOnUse"
   x1="19.888882"
   x2="48.66666"
   y1="23.999989"
   y2="23.999989">
  <stop
     offset="0"
     stop-color="#fff"
     id="stop7" />
  <stop
     offset=".14285715"
     stop-color="#fff"
     stop-opacity=".235294"
     id="stop9" />
  <stop
     offset="1"
     stop-color="#fff"
     stop-opacity=".156863"
     id="stop11" />
  <stop
     offset="1"
     stop-color="#fff"
     stop-opacity=".392157"
     id="stop13" />
</linearGradient>
<linearGradient
   id="c"
   gradientTransform="matrix(0.28571361,0,0,0.30419701,-25.704585,0.164808)"
   gradientUnits="userSpaceOnUse"
   x1="110.96631"
   x2="142.46638"
   y1="12.607593"
   y2="12.607593">
  <stop
     offset="0"
     stop-color="#f4f4f4"
     id="stop16" />
  <stop
     offset="1"
     stop-color="#dbdbdb"
     id="stop18" />
</linearGradient>



/&amp;amp;gt;<path
   inkscape:connector-curvature="0"
   style="fill:#fcaf3e;stroke:#ce5c00;stroke-linejoin:round;stroke-miterlimit:0"
   d="M 16,13.5 H 2.5 v 2 H 16"
   stroke-miterlimit="0"
   id="path1027"
   sodipodi:nodetypes="cccc" />
<g
   id="g880"
   transform="rotate(90,8.5,4.5)">
  <path
     id="path21"
     d="m 5.5,-2.5 0,13 h 10 v -13 z"
     inkscape:connector-curvature="0"
     style="fill:url(#c)"
     sodipodi:nodetypes="ccccc" />
  <path
     id="path23"
     d="m 5.5,-2.5 0,13 h 10 v -13 z"
     inkscape:connector-curvature="0"
     style="fill:none;stroke:url(#a);stroke-linejoin:round"
     sodipodi:nodetypes="ccccc" />
  <path
     id="path25"
     d="m 7,2 h 7 v 9 H 7 Z"
     inkscape:connector-curvature="0"
     style="fill:none" />
  <path
     id="path27"
     d="m 6,-2 0,12 h 9 V -2 Z m 1,1 h 7 V 9 L 7,9 Z"
     inkscape:connector-curvature="0"
     style="fill:url(#b)"
     sodipodi:nodetypes="cccccccccc" />
</g>
<g
   id="g874"
   transform="translate(-7.993,-7.993)">
  <path
     id="path38"
     d="M 10.5,10.5 V 8.493 h 3 V 10.5 h 2.007 v 3 H 13.5 v 2.007 h -3 V 13.5 H 8.493 v -3 z"
     style="fill:url(#a-3)"
     inkscape:connector-curvature="0" />
  <path
     id="path40"
     d="M 10.5,10.5 V 8.493 h 3 V 10.5 h 2.007 v 3 H 13.5 v 2.007 h -3 V 13.5 H 8.493 v -3 z"
     style="opacity:0.5;fill:none;stroke:#0f5a00;stroke-linecap:round;stroke-linejoin:round"
     inkscape:connector-curvature="0" />
  <g
     id="g48"
     style="fill:#ffffff">
    <path
       id="path42"
       d="m 11,9 h 2 v 1 h -2 z"
       inkscape:connector-curvature="0"
       style="opacity:0.5" />
    <path
       id="path44"
       d="m 11,14 h 2 v 1 h -2 z"
       inkscape:connector-curvature="0"
       style="opacity:0.2" />
    <path
       id="path46"
       d="m 9,11 v 1 h 2 v -1 z m 4,0 v 1 h 2 v -1 z"
       inkscape:connector-curvature="0"
       style="opacity:0.4" />
  </g>
</g>
</svg>
